X: 53
T: Rakes of Mallow
O: c.1740
R: march
Z: 2021 John Chambers <jc:trillian.mit.edu>
S: Image from Clare Hurley 2021-8-20 for Belmont Porchfest; page 114 of some unnamed book.
M: 2/4
L: 1/8
K: D
[| "D"D2F2 D2F2 | D2F2 "G"(GFED) | "A7"C2E2 C2E2 | C2E2 "D"(FEDC) ]
w: Beau-ing bel-ling danc-ing drink-**ing Break-ing win-dows swear-ing sing-**ing
%
"D"D2F2 D2F2 | D2F2 "A7"A3A | "G"GFED "A7"CDEG | "D"F2D2 D2z2 ||
w: Ev-er rak-ing nev-er think-ing Live* the* Rakes* of* Mal-*low.
%
|| "G"d2cB "A7"A2G2 | "D"F2G2 "A"A4 | "G"d2cB "A7"A2G2 | "D"F2G2 "A7"E4 |
w: Spend-ing* fast-er than it comes, Beat-ing* wait-ers bail-effs duns,
%
"G"d2cB "A7"A2G2 | "D"F2G2 "A"A4 | "G"GFED "A7"CDEG | "D"F2D2 D2z2 |]
w: Bac-chus-'s true be-got-ten sons, Live* the* Rakes* of* Mal-*low.
%
